src/assets/img/help.svg

<?xml version="1.0" encoding="UTF-8"?>
<svg width="20px" height="20px" viewBox="0 0 20 20" version="1.1" xmlns="http://www.w3.org/2000/svg" xmlns:xlink="http://www.w3.org/1999/xlink">
    <title>Group 3</title>
    <g id="Symbols" stroke="none" stroke-width="1" fill="none" fill-rule="evenodd">
        <g id="Top-Bar" transform="translate(-1114.000000, -22.000000)" fill="#0000FF">
            <g id="Group-3" transform="translate(1114.000000, 22.000000)">
                <g id="icon-help">
                    <circle id="Oval-Copy-12" fill-opacity="0.08" cx="9.99999041" cy="9.99999041" r="9"></circle>
                    <path d="M10,0 C4.47714821,0 0,4.47714821 0,10 C0,15.5228326 4.47714821,19.9999808 10,19.9999808 C15.5228326,19.9999808 19.9999808,15.5228326 19.9999808,10 C19.9999808,4.47714821 15.5228326,0 10,0 Z M9.99998082,1.99998082 C14.4182737,1.99998082 18,5.58170712 18,9.99998082 C18,14.4182737 14.4182737,18 9.99998082,18 C5.58170712,18 1.99998082,14.4182737 1.99998082,9.99998082 C1.99998082,5.58170712 5.58170712,1.99998082 9.99998082,1.99998082 Z" id="Combined-Shape" fill-rule="nonzero"></path>
                </g>
                <path d="M10.36,11.738 C10.5933333,11.738 10.7706667,11.689 10.892,11.591 C11.0133333,11.493 11.0926667,11.3693333 11.13,11.22 C11.186,10.968 11.2863333,10.73 11.431,10.506 C11.5756667,10.282 11.8673333,10.0113333 12.306,9.694 C12.8006667,9.33 13.1436667,8.96833333 13.335,8.609 C13.5263333,8.24966667 13.622,7.86 13.622,7.44 C13.622,6.95466667 13.4866667,6.52533333 13.216,6.152 C12.9453333,5.77866667 12.565,5.48933333 12.075,5.284 C11.585,5.07866667 11.018,4.976 10.374,4.976 C10.0006667,4.976 9.59933333,5.02033333 9.17,5.109 C8.74066667,5.19766667 8.33466667,5.33533333 7.952,5.522 C7.65333333,5.662 7.441,5.83933333 7.315,6.054 C7.189,6.26866667 7.13066667,6.488 7.14,6.712 C7.14933333,6.936 7.21466667,7.132 7.336,7.3 C7.45733333,7.468 7.62533333,7.57533333 7.84,7.622 C8.05466667,7.66866667 8.302,7.622 8.582,7.482 C8.82466667,7.35133333 9.07666667,7.25333333 9.338,7.188 C9.59933333,7.12266667 9.87933333,7.09 10.178,7.09 C10.794,7.09 11.102,7.30933333 11.102,7.748 C11.102,7.92533333 11.0576667,8.09333333 10.969,8.252 C10.8803333,8.41066667 10.724,8.60666667 10.5,8.84 C10.164,9.18533333 9.926,9.519 9.786,9.841 C9.646,10.163 9.576,10.506 9.576,10.87 C9.576,11.1313333 9.646,11.3413333 9.786,11.5 C9.926,11.6586667 10.1173333,11.738 10.36,11.738 Z M10.318,15.084 C10.7473333,15.084 11.0833333,14.9556667 11.326,14.699 C11.5686667,14.4423333 11.69,14.1133333 11.69,13.712 C11.69,13.32 11.5686667,12.998 11.326,12.746 C11.0833333,12.494 10.7473333,12.368 10.318,12.368 C9.88866667,12.368 9.55033333,12.494 9.303,12.746 C9.05566667,12.998 8.932,13.32 8.932,13.712 C8.932,14.1133333 9.05566667,14.4423333 9.303,14.699 C9.55033333,14.9556667 9.88866667,15.084 10.318,15.084 Z" id="?" fill-rule="nonzero"></path>
            </g>
        </g>
    </g>
</svg>

<svg width="20" height="20" xmlns="http://www.w3.org/2000/svg">
 <title>Group 3</title>

 <g>
  <title>background</title>
  <rect fill="none" id="canvas_background" height="402" width="582" y="-1" x="-1"/>
 </g>
 <g>
  <title>Layer 1</title>
  <path fill="#0000ff" fill-rule="nonzero" id="Combined-Shape" d="m10,0c-5.52285,0 -10,4.47715 -10,10c0,5.52283 4.47715,9.99998 10,9.99998c5.52283,0 9.99998,-4.47715 9.99998,-9.99998c0,-5.52285 -4.47715,-10 -9.99998,-10zm-0.00002,1.99998c4.41829,0 8.00002,3.58173 8.00002,8c0,4.41829 -3.58173,8.00002 -8.00002,8.00002c-4.41827,0 -8,-3.58173 -8,-8.00002c0,-4.41827 3.58173,-8 8,-8z"/>
  <path fill="#0000ff" fill-rule="nonzero" id="?" d="m10.36,11.738c0.23333,0 0.41067,-0.049 0.532,-0.147c0.12133,-0.098 0.20067,-0.22167 0.238,-0.371c0.056,-0.252 0.15633,-0.49 0.301,-0.714c0.14467,-0.224 0.43633,-0.49467 0.875,-0.812c0.49467,-0.364 0.83767,-0.72567 1.029,-1.085c0.19133,-0.35933 0.287,-0.749 0.287,-1.169c0,-0.48533 -0.13533,-0.91467 -0.406,-1.288c-0.27067,-0.37333 -0.651,-0.66267 -1.141,-0.868c-0.49,-0.20533 -1.057,-0.308 -1.701,-0.308c-0.37333,0 -0.77467,0.04433 -1.204,0.133c-0.42933,0.08867 -0.83533,0.22633 -1.218,0.413c-0.29867,0.14 -0.511,0.31733 -0.637,0.532c-0.126,0.21467 -0.18433,0.434 -0.175,0.658c0.00933,0.224 0.07467,0.42 0.196,0.588c0.12133,0.168 0.28933,0.27533 0.504,0.322c0.21467,0.04667 0.462,0 0.742,-0.14c0.24267,-0.13067 0.49467,-0.22867 0.756,-0.294c0.26133,-0.06533 0.54133,-0.098 0.84,-0.098c0.616,0 0.924,0.21933 0.924,0.658c0,0.17733 -0.04433,0.34533 -0.133,0.504c-0.08867,0.15867 -0.245,0.35467 -0.469,0.588c-0.336,0.34533 -0.574,0.679 -0.714,1.001c-0.14,0.322 -0.21,0.665 -0.21,1.029c0,0.26133 0.07,0.47133 0.21,0.63c0.14,0.15867 0.33133,0.238 0.574,0.238zm-0.042,3.346c0.42933,0 0.76533,-0.12833 1.008,-0.385c0.24267,-0.25667 0.364,-0.58567 0.364,-0.987c0,-0.392 -0.12133,-0.714 -0.364,-0.966c-0.24267,-0.252 -0.57867,-0.378 -1.008,-0.378c-0.42933,0 -0.76767,0.126 -1.015,0.378c-0.24733,0.252 -0.371,0.574 -0.371,0.966c0,0.40133 0.12367,0.73033 0.371,0.987c0.24733,0.25667 0.58567,0.385 1.015,0.385z"/>
 </g>
</svg>
